client/public/img/game/shared/emotes/devil_face.svg

<?xml version="1.0" encoding="UTF-8" standalone="no"?>
<!-- Created with Inkscape (http://www.inkscape.org/) -->

<svg
   width="84"
   height="84"
   viewBox="0 0 22.224999 22.225"
   version="1.1"
   id="svg1"
   xml:space="preserve"
   xmlns="http://www.w3.org/2000/svg"
   xmlns:svg="http://www.w3.org/2000/svg"><defs
     id="defs1" /><style
     type="text/css"
     id="style16758">
	.st0{fill:#FFC300;stroke:#695000;stroke-width:13;stroke-miterlimit:10;}
	.st1{fill:#FFC300;stroke:#695000;stroke-width:13;stroke-linecap:round;stroke-miterlimit:10;}
</style><style
     type="text/css"
     id="style16758-4">
	.st0{fill:#FFC300;stroke:#695000;stroke-width:13;stroke-miterlimit:10;}
	.st1{fill:#FFC300;stroke:#695000;stroke-width:13;stroke-linecap:round;stroke-miterlimit:10;}
</style><style
     type="text/css"
     id="style16758-5">
	.st0{fill:#FFC300;stroke:#695000;stroke-width:13;stroke-miterlimit:10;}
	.st1{fill:#FFC300;stroke:#695000;stroke-width:13;stroke-linecap:round;stroke-miterlimit:10;}
</style><style
     type="text/css"
     id="style16758-9">
	.st0{fill:#FFC300;stroke:#695000;stroke-width:13;stroke-miterlimit:10;}
	.st1{fill:#FFC300;stroke:#695000;stroke-width:13;stroke-linecap:round;stroke-miterlimit:10;}
</style><g
     id="g1167"><g
       id="g1151"><g
         id="path11956"><path
           style="fill:#3b1f4b;stroke-linecap:round;paint-order:stroke fill markers"
           d="M 22.087891,0 21.078125,0.453125 C 19.865146,0.99871583 19.325899,2.1626182 18.707031,2.9511719 18.397597,3.3454487 18.086407,3.6535725 17.720703,3.8398438 17.354999,4.026115 16.919297,4.1168523 16.246094,4.0078125 a 0.63989478,0.63989478 0 0 0 -0.732422,0.5292969 0.63989478,0.63989478 0 0 0 0.529297,0.734375 c 0.889513,0.1440759 1.649691,0.018731 2.257812,-0.2910157 0.608121,-0.3097463 1.047912,-0.7761781 1.41211,-1.2402343 C 19.977224,3.4034236 20.176136,3.2714116 20.398437,2.9707031 20.232842,4.3091496 20.086825,5.8562605 19.84375,6.59375 19.466744,7.7375861 18.953518,8.3934914 17.853516,9.3476563 A 0.63989478,0.63989478 0 0 0 17.789062,10.25 a 0.63989478,0.63989478 0 0 0 0.902344,0.06445 c 1.181581,-1.024928 1.921883,-1.9633339 2.369141,-3.3203124 0.447257,-1.3569784 0.637904,-3.086477 0.917969,-5.8925781 z"
           id="path1" /><path
           style="fill:#9455b9;stroke-linecap:round;paint-order:stroke fill markers"
           d="m 16.144369,4.6401716 c 3.125434,0.5062314 3.3179,-2.7577057 5.196587,-3.6027278 -0.559327,5.6041545 -0.787399,6.81416 -3.068982,8.7932529"
           id="path2" /></g><g
         id="path11382"><path
           style="fill:#3b1f4b;stroke-linecap:round;paint-order:stroke fill markers"
           d="M 0.13671875,0 0.24804688,1.1015625 C 0.5281111,3.9076636 0.71680587,5.6371653 1.1640625,6.9941406 1.6113191,8.3511159 2.351623,9.2895262 3.5332031,10.314453 A 0.63987499,0.63987499 0 0 0 4.4355469,10.25 0.63987499,0.63987499 0 0 0 4.3730469,9.3476563 C 3.2730431,8.3934903 2.7578668,7.7375893 2.3808594,6.59375 2.1378989,5.8566086 1.9916938,4.310108 1.8261719,2.9726563 2.0481915,3.2730285 2.2477595,3.4039007 2.5117188,3.7402344 2.8759156,4.2042895 3.3157112,4.6707243 3.9238281,4.9804687 4.531945,5.2902132 5.2940837,5.4155597 6.1835937,5.2714844 A 0.63987499,0.63987499 0 0 0 6.7128906,4.5371094 0.63987499,0.63987499 0 0 0 5.9785156,4.0078125 C 5.3053092,4.1168528 4.8696137,4.0261169 4.5039062,3.8398438 4.1381988,3.6535706 3.8270129,3.3454498 3.5175781,2.9511719 2.8987087,2.162616 2.3594555,0.99871199 1.1464844,0.453125 Z"
           id="path3" /><path
           style="fill:#9455b9;stroke-linecap:round;paint-order:stroke fill markers"
           d="M 6.0805531,4.6401716 C 2.9551202,5.146403 2.762654,1.8824659 0.88396666,1.0374438 1.4432919,6.6415983 1.6713654,7.8516038 3.9529493,9.8306967"
           id="path4" /></g><circle
         style="fill:#9455b9;fill-opacity:1;fill-rule:nonzero;stroke:#3b1f4b;stroke-width:0.9141354;stroke-linecap:round;stroke-linejoin:round;stroke-miterlimit:4;stroke-dasharray:none;stroke-dashoffset:0;stroke-opacity:1;paint-order:normal"
         id="path10-1"
         cx="11.144117"
         cy="12.263305"
         r="9.0475588" /></g><g
       id="g1146"><g
         id="g892-7"
         transform="matrix(0.16406253,0,0,0.16406253,-0.03748118,-26.664888)"><circle
           style="fill:#3b1f4b;fill-opacity:1;fill-rule:nonzero;stroke:none;stroke-width:7.14574;stroke-linecap:round;stroke-linejoin:bevel;stroke-miterlimit:4;stroke-dasharray:none;stroke-dashoffset:0;stroke-opacity:1;paint-order:markers stroke fill"
           id="path5010-71"
           cx="44.837261"
           cy="241.72392"
           r="8.3575869" /><circle
           cy="91.085823"
           cx="-241.7242"
           id="circle5014-15"
           style="fill:#3b1f4b;fill-opacity:1;fill-rule:nonzero;stroke:none;stroke-width:7.14551;stroke-linecap:round;stroke-linejoin:bevel;stroke-miterlimit:4;stroke-dasharray:none;stroke-dashoffset:0;stroke-opacity:1;paint-order:markers stroke fill"
           r="8.3575869"
           transform="rotate(-90)" /></g><path
         style="fill:none;fill-opacity:1;fill-rule:nonzero;stroke:#3b1f4b;stroke-width:1.18834;stroke-linecap:round;stroke-linejoin:miter;stroke-miterlimit:4;stroke-dasharray:none;stroke-dashoffset:0;stroke-opacity:1;paint-order:stroke markers fill"
         d="m 6.0899836,15.886083 c 3.1276774,2.833382 6.4008544,2.812162 10.0405124,0"
         id="path917-9" /><g
         id="g1135"><g
           id="g896"
           transform="matrix(0.16406253,0,0,0.16406253,-0.05512846,-26.664888)"><path
             id="path2114"
             d="m 41.995448,221.781 c 7.204182,2.96533 14.842794,5.28319 17.690223,14.74186"
             style="fill:#3b1f4b;fill-opacity:1;fill-rule:nonzero;stroke:#3b1f4b;stroke-width:7.24324;stroke-linecap:round;stroke-linejoin:miter;stroke-miterlimit:4;stroke-dasharray:none;stroke-dashoffset:0;stroke-opacity:1;paint-order:stroke markers fill" /></g><g
           id="g421"
           transform="matrix(-0.16406253,0,0,0.16406253,22.368275,-26.664888)"><path
             id="path419"
             d="m 41.995448,221.781 c 7.204182,2.96533 14.842794,5.28319 17.690223,14.74186"
             style="fill:#3b1f4b;fill-opacity:1;fill-rule:nonzero;stroke:#3b1f4b;stroke-width:7.24324;stroke-linecap:round;stroke-linejoin:miter;stroke-miterlimit:4;stroke-dasharray:none;stroke-dashoffset:0;stroke-opacity:1;paint-order:stroke markers fill" /></g></g></g></g></svg>

<svg xmlns="http://www.w3.org/2000/svg" xml:space="preserve" width="84" height="84" viewBox="0 0 22.225 22.225"><path d="m22.088 0-1.01.453c-1.213.546-1.752 1.71-2.371 2.498-.31.394-.62.703-.986.889s-.802.277-1.475.168a.64.64 0 0 0-.732.53.64.64 0 0 0 .529.733c.89.145 1.65.02 2.258-.29s1.048-.777 1.412-1.24c.264-.338.463-.47.685-.77-.165 1.338-.311 2.885-.554 3.623-.377 1.144-.89 1.8-1.99 2.754a.64.64 0 0 0-.065.902.64.64 0 0 0 .902.064c1.182-1.024 1.922-1.963 2.37-3.32.447-1.357.637-3.086.918-5.892z" style="fill:#3b1f4b;stroke-linecap:round;paint-order:stroke fill markers"/><path d="M16.144 4.64c3.126.506 3.318-2.758 5.197-3.603-.56 5.605-.787 6.815-3.069 8.794" style="fill:#9455b9;stroke-linecap:round;paint-order:stroke fill markers"/><path d="m.137 0 .111 1.102c.28 2.806.469 4.535.916 5.892s1.188 2.296 2.37 3.32a.64.64 0 0 0 .902-.064.64.64 0 0 0-.063-.902c-1.1-.955-1.615-1.61-1.992-2.754-.243-.737-.39-2.284-.555-3.621.222.3.422.43.686.767.364.464.804.93 1.412 1.24s1.37.436 2.26.291a.64.64 0 0 0 .529-.734.64.64 0 0 0-.734-.53c-.674.11-1.11.02-1.475-.167-.366-.186-.677-.495-.986-.889C2.898 2.163 2.359 1 1.146.453Z" style="fill:#3b1f4b;stroke-linecap:round;paint-order:stroke fill markers"/><path d="M6.08 4.64C2.956 5.146 2.764 1.882.885 1.037c.56 5.605.787 6.815 3.069 8.794" style="fill:#9455b9;stroke-linecap:round;paint-order:stroke fill markers"/><circle cx="11.144" cy="12.263" r="9.048" style="fill:#9455b9;fill-opacity:1;fill-rule:nonzero;stroke:#3b1f4b;stroke-width:.9141354;stroke-linecap:round;stroke-linejoin:round;stroke-miterlimit:4;stroke-dasharray:none;stroke-dashoffset:0;stroke-opacity:1;paint-order:normal"/><g transform="matrix(.16406 0 0 .16406 -.037 -26.665)"><circle cx="44.837" cy="241.724" r="8.358" style="fill:#3b1f4b;fill-opacity:1;fill-rule:nonzero;stroke:none;stroke-width:7.14574;stroke-linecap:round;stroke-linejoin:bevel;stroke-miterlimit:4;stroke-dasharray:none;stroke-dashoffset:0;stroke-opacity:1;paint-order:markers stroke fill"/><circle cx="-241.724" cy="91.086" r="8.358" style="fill:#3b1f4b;fill-opacity:1;fill-rule:nonzero;stroke:none;stroke-width:7.14551;stroke-linecap:round;stroke-linejoin:bevel;stroke-miterlimit:4;stroke-dasharray:none;stroke-dashoffset:0;stroke-opacity:1;paint-order:markers stroke fill" transform="rotate(-90)"/></g><path d="M6.09 15.886c3.128 2.833 6.4 2.812 10.04 0" style="fill:none;fill-opacity:1;fill-rule:nonzero;stroke:#3b1f4b;stroke-width:1.18834;stroke-linecap:round;stroke-linejoin:miter;stroke-miterlimit:4;stroke-dasharray:none;stroke-dashoffset:0;stroke-opacity:1;paint-order:stroke markers fill"/><path d="M41.995 221.781c7.205 2.965 14.843 5.283 17.69 14.742" style="fill:#3b1f4b;fill-opacity:1;fill-rule:nonzero;stroke:#3b1f4b;stroke-width:7.24324;stroke-linecap:round;stroke-linejoin:miter;stroke-miterlimit:4;stroke-dasharray:none;stroke-dashoffset:0;stroke-opacity:1;paint-order:stroke markers fill" transform="matrix(.16406 0 0 .16406 -.055 -26.665)"/><path d="M41.995 221.781c7.205 2.965 14.843 5.283 17.69 14.742" style="fill:#3b1f4b;fill-opacity:1;fill-rule:nonzero;stroke:#3b1f4b;stroke-width:7.24324;stroke-linecap:round;stroke-linejoin:miter;stroke-miterlimit:4;stroke-dasharray:none;stroke-dashoffset:0;stroke-opacity:1;paint-order:stroke markers fill" transform="matrix(-.16406 0 0 .16406 22.368 -26.665)"/></svg>
